X: 86
T: Miserere mei deus
N: Derived from Mar2075-Miserere_mei_deus.krn
C: Johannes Martini
%%abc-version 2.0
%%abcx-abcm2ps-target-version 5.9.1 (29 Sep 2008)
%%abc-creator hum2abc beta
%%abcx-conversion-date 2019/02/17 07:19:42
%%abc-edited-by Jesse Rodin
%%abc-edited-by Chris Gage 08-07-2014
%%abcx-initial-encoding-date 2014/10/09/
%%humdrum-veritas 3017829035
%%humdrum-veritas-data 1648545509
%%linebreak <none>
%%barnumbers 0
L: 1/4
M: 4/2
Q: 1/2=120
V: 1 clef=treble
V: 2 clef=treble-8
V: 3 clef=treble-8
K: C
[V:1] c4c4 | 
[V:2] c4e4 | 
[V:3] c4A4 | 
[V:1] c2c2c4 | 
[V:2] e2e2c4 | 
[V:3] A2A2A4 | 
[V:1] B2A2B2c2- | 
[V:2] d2c2d2e2 | 
[V:3] G2A2G2C2- | 
[V:1] c2BAG2A2- | 
[V:2] c4B2c2 | 
[V:3] C2C2G2F2- | 
[V:1] A2G4^F2 | 
[V:2] d2B2A4 | 
[V:3] F2G2D4 | 
[V:1] G8 ||  
[V:2] G8 ||  
[V:3] d8 ||  
[V:1] c4c2c2 | 
[V:2] c4e2e2 | 
[V:3] c4A2A2 | 
[V:1] c4c2c2 | 
[V:2] e4f2f2 | 
[V:3] A4F2F2 | 
[V:1] c2c2c4 | 
[V:2] f2f2e4 | 
[V:3] F2F2A4 | 
[V:1] c4B2B2 | 
[V:2] f4g2g2 | 
[V:3] A4G2G2 | 
[V:1] B2B2c4 | 
[V:2] g2g2c3d | 
[V:3] G2G2A4 | 
[V:1] c2d4c2- | 
[V:2] e2f4e2 | 
[V:3] c2_B4c2 | 
[V:1] c2B2c4 | 
[V:2] d4c4 | 
[V:3] G4A4 | 
[V:1] z4c4 | 
[V:2] z4e4 | 
[V:3] z4A4 | 
[V:1] c4B4 | 
[V:2] e4d4 | 
[V:3] c4G4 | 
[V:1] A2c4BA | 
[V:2] c2c2c4 | 
[V:3] A2A2F4 | 
[V:1] G2A4G2- | 
[V:2] B2c2d2B2 | 
[V:3] G2F4G2 | 
[V:1] G2^F2G4 ||  
[V:2] A4G4 ||  
[V:3] D4d4 ||  
[V:1] c4c2c2 | 
[V:2] c4e2e2 | 
[V:3] c4A2A2 | 
[V:1] c2c2c4 | 
[V:2] e2e2f4 | 
[V:3] A2A2A4 | 
[V:1] B4A4 | 
[V:2] g4f4 | 
[V:3] G4z2A2 | 
[V:1] G2A2B2c2- | 
[V:2] e2f2d2e2- | 
[V:3] c2F2G2C2- | 
[V:1] c2BAB4 | 
[V:2] e2dcd4 | 
[V:3] C2C2G4 | 
[V:1] c4z4 | 
[V:2] c4z4 | 
[V:3] A4z4 | 
[V:1] c4c4 | 
[V:2] e4e4 | 
[V:3] A4A4 | 
[V:1] c2c2c2c2 | 
[V:2] e2e2e2e2 | 
[V:3] A2A2A2A2 | 
[V:1] c4B4- | 
[V:2] c4d3c | 
[V:3] A4G4- | 
[V:1] B2c4BA | 
[V:2] d2e2c4 | 
[V:3] G2C2F4 | 
[V:1] G2A4G2- | 
[V:2] B2c2d2B2 | 
[V:3] G2F4G2 | 
[V:1] G2^F2G4 ||  
[V:2] A4G4 ||  
[V:3] D4d4 ||  
[V:1] c2c2c2c2 | 
[V:2] c2c2e2e2 | 
[V:3] c2c2A2A2 | 
[V:1] c2c2c2c2 | 
[V:2] f2f2f2f2 | 
[V:3] F2F2F2F2 | 
[V:1] c4B4 | 
[V:2] f4d4 | 
[V:3] F4G4 | 
[V:1] c2d4c2- | 
[V:2] c2f4e2 | 
[V:3] A2_B4c2 | 
[V:1] c2B2c4 | 
[V:2] d4c4 | 
[V:3] G4A4 | 
[V:1] z4c4 | 
[V:2] z4e4 | 
[V:3] z4A4 | 
[V:1] c2c2c2c2 | 
[V:2] e2e2e2e2 | 
[V:3] A2A2A2A2 | 
[V:1] c4B4 | 
[V:2] e4d4 | 
[V:3] c4G2D2 | 
[V:1] A2B2c4 | 
[V:2] c2d2e4 | 
[V:3] F2D2C4 | 
[V:1] B2A3GG2- | 
[V:2] d4c2B2 | 
[V:3] D2F4G2 | 
[V:1] G2^F2G4 ||  
[V:2] A4G4 ||  
[V:3] D4d4 ||  
[V:1] c2c2c4 | 
[V:2] e2e2e2e2 | 
[V:3] c2c2A4 | 
[V:1] c4c2c2 | 
[V:2] f4f4 | 
[V:3] F4F2F2 | 
[V:1] c4B4 | 
[V:2] f4d3e | 
[V:3] F4G4 | 
[V:1] A4G2A2 | 
[V:2] f4e2f2 | 
[V:3] D2F2C2F2 | 
[V:1] B2c4B2 | 
[V:2] g2e2d4 | 
[V:3] E2C2G4 | 
[V:1] c4z4 | 
[V:2] c4z4 | 
[V:3] C4z4 | 
[V:1] c4c2c2 | 
[V:2] e4e2e2 | 
[V:3] c4A2A2 | 
[V:1] c2c2c4 | 
[V:2] e2e2c4 | 
[V:3] A2A2A4 | 
[V:1] B4c2B2 | 
[V:2] d4e2d2 | 
[V:3] G4C2G2 | 
[V:1] A2B4A2- | 
[V:2] c2d4c2 | 
[V:3] A2G4A2 | 
[V:1] A2^G2A4 | 
[V:2] B4A4 | 
[V:3] E4c4 | 
[V:1] z2B2c4 | 
[V:2] G4A4 | 
[V:3] d4c4 | 
[V:1] c4B3A | 
[V:2] c4d3c | 
[V:3] A4G4 | 
[V:1] B2c4BA | 
[V:2] d2e4dc | 
[V:3] G2C4C2 | 
[V:1] G2A4G2- | 
[V:2] B2c4B2 | 
[V:3] G2F4G2 | 
[V:1] G2^F2G4 ||  
[V:2] A4G4 ||  
[V:3] D4G4 ||  
[V:1] c4c2c2 | 
[V:2] c4e2e2 | 
[V:3] c4A2A2 | 
[V:1] c4c4 | 
[V:2] e4c4 | 
[V:3] A4A4 | 
[V:1] B4B2B2 | 
[V:2] d4d2d2 | 
[V:3] G4G2G2 | 
[V:1] B2B2B4 | 
[V:2] d2d2d4 | 
[V:3] G2G2G4 | 
[V:1] A4G3A | 
[V:2] c4B3c | 
[V:3] A2F2G2z2 | 
[V:1] B2c4B2 | 
[V:2] d2c2d4 | 
[V:3] G2A2G4 | 
[V:1] c4z4 | 
[V:2] c4z4 | 
[V:3] C4z4 | 
[V:1] c2c2B2B2 | 
[V:2] e2e2d2d2 | 
[V:3] C2C2G2G2 | 
[V:1] c4B4 | 
[V:2] c4d4 | 
[V:3] A4G4 | 
[V:1] A2B2c4 | 
[V:2] c2d2e4 | 
[V:3] A2G2c4 | 
[V:1] B2A4G2- | 
[V:2] d4c2B2 | 
[V:3] G2F4G2 | 
[V:1] G2^F2G4 ||  
[V:2] A4G4 ||  
[V:3] D4d4 ||  
[V:1] c4c2c2 | 
[V:2] e4e2e2 | 
[V:3] c4A2A2 | 
[V:1] c4c2c2 | 
[V:2] e4e2e2 | 
[V:3] A4A2A2 | 
[V:1] c4B4 | 
[V:2] f4g4 | 
[V:3] A4G4 | 
[V:1] A4G2A2 | 
[V:2] f4e2f2 | 
[V:3] D2F2C2F2 | 
[V:1] B2c4BA | 
[V:2] g2e4dc | 
[V:3] E2C6 | 
[V:1] B4c4 | 
[V:2] d4c4 | 
[V:3] G4C4 | 
[V:1] z4c2c2 | 
[V:2] z4e2e2 | 
[V:3] z4c2c2 | 
[V:1] c4B2A2 | 
[V:2] e4d2c2 | 
[V:3] c4G2A2 | 
[V:1] B4c4 | 
[V:2] d4c4 | 
[V:3] G4A4 | 
[V:1] c2c2c2c2 | 
[V:2] e2e2e2e2 | 
[V:3] A2A2A2A2 | 
[V:1] c4B2A2 | 
[V:2] e4d2c2 | 
[V:3] A4z2A2 | 
[V:1] B2c4BA | 
[V:2] d2e4dc | 
[V:3] G2C4G2 | 
[V:1] G2A4G2- | 
[V:2] B2c2d2B2 | 
[V:3] G2F4G2 | 
[V:1] G2^F2G4 ||  
[V:2] A4G4 ||  
[V:3] D4d4 ||  
[V:1] c4c4 | 
[V:2] e4e4 | 
[V:3] c4A4 | 
[V:1] c2c2B2B2 | 
[V:2] f2f2d2d2 | 
[V:3] F2F2G2G2 | 
[V:1] c4c2c2 | 
[V:2] e4e2e2 | 
[V:3] C4c2c2 | 
[V:1] c4B4 | 
[V:2] f4g4 | 
[V:3] A4G4 | 
[V:1] A4G3A | 
[V:2] f4e2g2- | 
[V:3] z2A2c4 | 
[V:1] B2c4B2 | 
[V:2] gfe2d4 | 
[V:3] G2c2G4 | 
[V:1] c4z4 | 
[V:2] c4z4 | 
[V:3] A4z4 | 
[V:1] c4c2c2 | 
[V:2] e4e2e2 | 
[V:3] A4A2A2 | 
[V:1] c4B4 | 
[V:2] c4d2e2 | 
[V:3] A4G4 | 
[V:1] A2B2c4 | 
[V:2] f4e2c2 | 
[V:3] F2G2A2A2 | 
[V:1] B2A4G2- | 
[V:2] d2c4B2 | 
[V:3] G2A2F2G2 | 
[V:1] G2^F2G4 ||  
[V:2] A4G4 ||  
[V:3] D4d4 ||  
[V:1] c4c2c2 | 
[V:2] e4e2e2 | 
[V:3] c4A2A2 | 
[V:1] c2c2c4 | 
[V:2] e2e2f4 | 
[V:3] A2A2F4 | 
[V:1] c2c2c2c2 | 
[V:2] e2e2e2e2 | 
[V:3] A2A2A2A2 | 
[V:1] c4B4 | 
[V:2] e4g4 | 
[V:3] A4G4 | 
[V:1] c2d4c2- | 
[V:2] e2f2g2e2 | 
[V:3] c2A2G2c2 | 
[V:1] c2B2c4 | 
[V:2] d4c4 | 
[V:3] G4A4 | 
[V:1] z4c2c2 | 
[V:2] z4e2e2 | 
[V:3] z4A2c2 | 
[V:1] B2B2c4 | 
[V:2] d2d2c4 | 
[V:3] G2G2A4 | 
[V:1] B2A2B2c2- | 
[V:2] d2c2d2e2- | 
[V:3] G2A2G2C2- | 
[V:1] c2BAG2A2- | 
[V:2] e2d2B2c2- | 
[V:3] C2G4F2- | 
[V:1] A2G4^F2 | 
[V:2] c2B2A4 | 
[V:3] F2G2D4 | 
[V:1] G8 ||  
[V:2] G8 ||  
[V:3] d8 ||  
[V:1] c2c2c4 | 
[V:2] c2c2e4 | 
[V:3] c2c2A4 | 
[V:1] c4c2c2 | 
[V:2] e4f2f2 | 
[V:3] A4F2F2 | 
[V:1] c4c4 | 
[V:2] f4e4 | 
[V:3] F4A4 | 
[V:1] B4c2d2- | 
[V:2] g4e2f2- | 
[V:3] G4c2_B2- | 
[V:1] d2c4B2 | 
[V:2] f2e2d4 | 
[V:3] B2c2G4 | 
[V:1] c4z4 | 
[V:2] c4z4 | 
[V:3] C4z4 | 
[V:1] c4c4 | 
[V:2] e4e4 | 
[V:3] c4A4 | 
[V:1] c4c2c2 | 
[V:2] f4f2f2 | 
[V:3] F4F2F2 | 
[V:1] c2c2c4 | 
[V:2] f2f2e4 | 
[V:3] F2F2C4 | 
[V:1] B4A3G | 
[V:2] d4c3B | 
[V:3] G4A2F2- | 
[V:1] A2B4G2- | 
[V:2] c2d2G4 | 
[V:3] F2D2E4 | 
[V:1] G2^F2G4 ||  
[V:2] A4G4 ||  
[V:3] D4d4 ||  
[V:1] c4c4 | 
[V:2] e4e4 | 
[V:3] c4A4 | 
[V:1] c4B4 | 
[V:2] f4g4 | 
[V:3] A4G4 | 
[V:1] A4G2A2 | 
[V:2] f4e2f2 | 
[V:3] A2F2c2A2 | 
[V:1] B2c4BA | 
[V:2] g2e4dc | 
[V:3] G2A2c4 | 
[V:1] B4c4 | 
[V:2] d4c4 | 
[V:3] G4A4 | 
[V:1] z4c4 | 
[V:2] z4e4 | 
[V:3] z4A4 | 
[V:1] c2c2B2B2 | 
[V:2] e2e2d2d2 | 
[V:3] A2c2G2G2 | 
[V:1] B4c2c2 | 
[V:2] d4e2e2 | 
[V:3] G4c2c2 | 
[V:1] c4B2A2 | 
[V:2] e4d2c2 | 
[V:3] A4z2A2 | 
[V:1] B2c4BA | 
[V:2] d2e2c2d2 | 
[V:3] G2c2A2G2- | 
[V:1] G2A4G2- | 
[V:2] B2c2B2G2 | 
[V:3] G2F2G2E2 | 
[V:1] G2^F2G4 ||  
[V:2] A4G4 ||  
[V:3] D4d4 ||  
[V:1] c4c2c2 | 
[V:2] e4e2e2 | 
[V:3] c4A2A2 | 
[V:1] c2c2c4 | 
[V:2] e2e2f4 | 
[V:3] A2A2F4 | 
[V:1] B4c2d2- | 
[V:2] d4e2f2 | 
[V:3] G4c2B2 | 
[V:1] d2c4B2 | 
[V:2] g2e2d4 | 
[V:3] G2c2G4 | 
[V:1] c4z4 | 
[V:2] c4z4 | 
[V:3] C4z4 | 
[V:1] c4c2c2 | 
[V:2] e4e2e2 | 
[V:3] c4c2c2 | 
[V:1] c4B2A2 | 
[V:2] e4d2c2 | 
[V:3] A2c2G2A2 | 
[V:1] B4c4 | 
[V:2] d4e4 | 
[V:3] G4C4 | 
[V:1] B4A3B | 
[V:2] d4c2d2 | 
[V:3] G4A2G2 | 
[V:1] c4B2A2- | 
[V:2] e4d4 | 
[V:3] c4G2D2 | 
[V:1] A2G4^F2 | 
[V:2] c2B2A4 | 
[V:3] F2G2D4 | 
[V:1] G8 ||  
[V:2] G8 ||  
[V:3] d8 ||  
[V:1] c4c2c2 | 
[V:2] c4e2e2 | 
[V:3] c4A2A2 | 
[V:1] c4c4 | 
[V:2] e4e4 | 
[V:3] A4A4 | 
[V:1] c2c2c4 | 
[V:2] e2e2e4 | 
[V:3] A2A2A4 | 
[V:1] B2A2G2c2- | 
[V:2] d2c2B2c2 | 
[V:3] D2F2G2A2 | 
[V:1] c2B2c4 | 
[V:2] d4c4 | 
[V:3] G4C4 | 
[V:1] z4c4 | 
[V:2] z4e4 | 
[V:3] z4c4 | 
[V:1] c2c2c4 | 
[V:2] e2e2e4 | 
[V:3] A2A2A4 | 
[V:1] B2A2B2c2- | 
[V:2] d2c2d2e2 | 
[V:3] z2A2G2C2 | 
[V:1] c2BAG2A2- | 
[V:2] c4B2c2 | 
[V:3] F4G2F2- | 
[V:1] A2G4^F2 | 
[V:2] d2B2A4 | 
[V:3] F2G2D4 | 
[V:1] G8 ||  
[V:2] G8 ||  
[V:3] d8 ||  
[V:1] c4c4 | 
[V:2] e4e4 | 
[V:3] c4A4 | 
[V:1] c4c2c2 | 
[V:2] f4e2e2 | 
[V:3] F4A2A2 | 
[V:1] c4B4 | 
[V:2] e4g4 | 
[V:3] A4G4 | 
[V:1] A4G3A | 
[V:2] f4e4 | 
[V:3] D2F2C4 | 
[V:1] B2c4B2 | 
[V:2] d2c2d4 | 
[V:3] G2A2G4 | 
[V:1] c4z4 | 
[V:2] c4z4 | 
[V:3] A4z4 | 
[V:1] c4c2c2 | 
[V:2] e4e2e2 | 
[V:3] A4A2A2 | 
[V:1] c4B4 | 
[V:2] f4d4 | 
[V:3] F4G4 | 
[V:1] A2c2B2A2- | 
[V:2] c2e2d2c2- | 
[V:3] A4D2F2- | 
[V:1] A2G4^F2 | 
[V:2] cBG2A4 | 
[V:3] FGE2D4 | 
[V:1] G8 ||  
[V:2] G8 ||  
[V:3] d8 ||  
[V:1] c4c2c2 | 
[V:2] c4e2e2 | 
[V:3] c4A2A2 | 
[V:1] c4c2c2 | 
[V:2] e4e2e2 | 
[V:3] A4A2A2 | 
[V:1] c2c2c4 | 
[V:2] e2e2c4 | 
[V:3] A2A2A4 | 
[V:1] c4B4 | 
[V:2] e4d4 | 
[V:3] c4G4 | 
[V:1] A4G2A2 | 
[V:2] c4B2c2 | 
[V:3] A2F2G2F2 | 
[V:1] B2c4BA | 
[V:2] d2e4dc | 
[V:3] D2C2c4 | 
[V:1] B4c4 | 
[V:2] d4c4 | 
[V:3] G4A4 | 
[V:1] z4c2c2 | 
[V:2] z4e2e2 | 
[V:3] z4A2A2 | 
[V:1] c2c2c4 | 
[V:2] e2e2e4 | 
[V:3] A2A2A4 | 
[V:1] c2c2c4 | 
[V:2] e2e2e4 | 
[V:3] A2A2c4 | 
[V:1] B2A2B2c2- | 
[V:2] d2c2d2e2- | 
[V:3] G2A2G2c2- | 
[V:1] c2BAG2A2- | 
[V:2] e2dcB2c2- | 
[V:3] c2G4F2- | 
[V:1] A2G4^F2 | 
[V:2] cBG2A4 | 
[V:3] FGE2D4 | 
[V:1] G8 ||  
[V:2] G8 ||  
[V:3] d8 ||  
[V:1] c2c2c4 | 
[V:2] c2c2e4 | 
[V:3] c2c2A4 | 
[V:1] c2c2c2c2 | 
[V:2] f2f2f4 | 
[V:3] F2F2F4 | 
[V:1] c4B4 | 
[V:2] e2f2g4 | 
[V:3] A4G4 | 
[V:1] c2d4c2- | 
[V:2] e2f4e2 | 
[V:3] c2_B4c2 | 
[V:1] c2B2c4 | 
[V:2] d4c4 | 
[V:3] G4C4 | 
[V:1] z4c4 | 
[V:2] z4e4 | 
[V:3] z4c4 | 
[V:1] c2c2c4 | 
[V:2] e2e2f4 | 
[V:3] A2A2A4 | 
[V:1] B2B2B2B2 | 
[V:2] g2g2d2d2 | 
[V:3] G2G2G2G2 | 
[V:1] B4c4 | 
[V:2] d4e4 | 
[V:3] G4C4 | 
[V:1] B2A4G2- | 
[V:2] d4c2B2 | 
[V:3] D2F4G2 | 
[V:1] G2^F2G4 ||  
[V:2] A4G4 ||  
[V:3] D4d4 ||  
[V:1] c2c2c4 | 
[V:2] c2c2e4 | 
[V:3] c2c2A4 | 
[V:1] c2c2c2c2 | 
[V:2] f2f2f2f2 | 
[V:3] F2F2F2F2 | 
[V:1] c4c2c2 | 
[V:2] f4e2e2 | 
[V:3] F4A2A2 | 
[V:1] c2c2c4 | 
[V:2] e2e2f4 | 
[V:3] A2A2A4 | 
[V:1] B4c2d2- | 
[V:2] g4e2f2- | 
[V:3] G4c2_B2- | 
[V:1] d2c4B2 | 
[V:2] f2e2d4 | 
[V:3] B2c2G4 | 
[V:1] c4z4 | 
[V:2] c4z4 | 
[V:3] A4z4 | 
[V:1] c2c2c4 | 
[V:2] e2e2e4 | 
[V:3] A2A2c4 | 
[V:1] B2B2B4 | 
[V:2] d2d2d4 | 
[V:3] G2G2G4 | 
[V:1] c4B2A2 | 
[V:2] c4d2c2 | 
[V:3] A4G2A2 | 
[V:1] B2c4BA | 
[V:2] d2e4dc | 
[V:3] G2C4G2- | 
[V:1] G2A4G2- | 
[V:2] B2c3BG2 | 
[V:3] G2F4E2 | 
[V:1] GE^F2G4 ||  
[V:2] A4G4 ||  
[V:3] D4d4 ||  
[V:1] c2c2c2c2 | 
[V:2] c2c2e2e2 | 
[V:3] c2c2A2A2 | 
[V:1] c4B2B2 | 
[V:2] f4d2d2 | 
[V:3] F4G2G2 | 
[V:1] A2B2c4 | 
[V:2] c2d2e4 | 
[V:3] A2G2C4 | 
[V:1] B2A2G2c2- | 
[V:2] d2f2e2c2 | 
[V:3] G2F2c2A2 | 
[V:1] c2B2c4 | 
[V:2] d4c4 | 
[V:3] G4A4 | 
[V:1] z4c4 | 
[V:2] z4e4 | 
[V:3] z4A4 | 
[V:1] c2c2c4 | 
[V:2] e2e2e4 | 
[V:3] A2A2c4 | 
[V:1] B4B2B2 | 
[V:2] d4d2d2 | 
[V:3] G4G2G2 | 
[V:1] B2B2c4 | 
[V:2] d2d2e4 | 
[V:3] G2G2C4 | 
[V:1] B4A2B2 | 
[V:2] d2e2f4 | 
[V:3] G4F4 | 
[V:1] c4B2A2- | 
[V:2] e4d2c2 | 
[V:3] A2c2G2A2 | 
[V:1] A2G4^F2 | 
[V:2] d2B2A4 | 
[V:3] F2G2D4 | 
[V:1] G8 ||  
[V:2] G8 ||  
[V:3] G8 ||  
[V:1] c4c2c2 | 
[V:2] c4e2e2 | 
[V:3] c4A2A2 | 
[V:1] c4c4 | 
[V:2] e4e4 | 
[V:3] A4A4 | 
[V:1] c2c2c4 | 
[V:2] e2e2c4 | 
[V:3] A2A2A4 | 
[V:1] B2A2G2A2 | 
[V:2] d2c2B2c2 | 
[V:3] D2F2G2F2 | 
[V:1] B2c4BA | 
[V:2] d2e4dc | 
[V:3] D2C4DE | 
[V:1] B4c4 | 
[V:2] d4c4 | 
[V:3] G4A4 | 
[V:1] z4c4 | 
[V:2] z4e4 | 
[V:3] z4A4 | 
[V:1] c2c2c2c2 | 
[V:2] f2f2f2f2 | 
[V:3] F2F2F2F2 | 
[V:1] c4B4 | 
[V:2] e4d4 | 
[V:3] A4z2D2 | 
[V:1] A2G2A2B2- | 
[V:2] c2B2c2d2- | 
[V:3] F2G2F2D2 | 
[V:1] BAG4^F2 | 
[V:2] d2B2A4 | 
[V:3] G4D4 | 
[V:1] G8 ||  
[V:2] G8 ||  
[V:3] d8 ||  
[V:1] c4c2c2 | 
[V:2] c4e2e2 | 
[V:3] c4A2A2 | 
[V:1] c4c4 | 
[V:2] e4f4 | 
[V:3] A4F4 | 
[V:1] c2c2c2c2 | 
[V:2] e2e2e2e2 | 
[V:3] A2A2A2A2 | 
[V:1] c4B4 | 
[V:2] c4d4 | 
[V:3] A4G4 | 
[V:1] B2B2B4 | 
[V:2] d2d2d4 | 
[V:3] G2G2G4 | 
[V:1] c2c2c2c2 | 
[V:2] c2c2e2e2 | 
[V:3] A2A2A2A2 | 
[V:1] c4B4 | 
[V:2] f4g4 | 
[V:3] A4G4 | 
[V:1] A4G3A | 
[V:2] f4e3f | 
[V:3] d2A2c2BA | 
[V:1] B2c4B2 | 
[V:2] g2e2d4 | 
[V:3] G2C2G4 | 
[V:1] c4z4 | 
[V:2] c4z4 | 
[V:3] C4z4 | 
[V:1] c4c2c2 | 
[V:2] e4e2e2 | 
[V:3] c4A2A2 | 
[V:1] c4c2c2 | 
[V:2] e4e2e2 | 
[V:3] A4A2A2 | 
[V:1] c2c2c4 | 
[V:2] e2e2c4 | 
[V:3] A2A2A4 | 
[V:1] B4A2B2 | 
[V:2] d3ef2g2- | 
[V:3] G2G2d2B2 | 
[V:1] c4B4 | 
[V:2] g2f2g3f | 
[V:3] A4G4 | 
[V:1] B8 |]  
[V:2] d8 |]  
[V:3] G8 |]  



